X: 191
T: Rough Diamond
T: Jig, G
L: 1/16
M: 6/8
K: G
|: D2| G2B2A2 G4B2| d2e2f2 g2f2g2| G2B2A2 G4B2| A2B2A2 A2F2D2| G2B2A2 G4B2| d2e2f2 g2f2g2| e2g2e2 d2B2A2| B2G2G2 G4:| 
|: B2| e6 e2d2B2| d2e2f2 g2f2g2| e6 e2d2B2| d2B2A2 A2B2d2| e6 e2d2B2| d2e2f2 g2f2g2| e2g2e2 d2B2A2| B2G2G2 G4:| 
D: Stehanie Wills, Tradition Continued, STEPH 1-94
